src/static/info.svg

<svg
  width="20"
  height="20"
  viewBox="0 0 20 20"
  fill="none"
  xmlns="http://www.w3.org/2000/svg"
>
  <path
    d="M10.0003 1.66675C8.35215 1.66675 6.74099 2.15549 5.37058 3.07117C4.00017 3.98685 2.93206 5.28834 2.30133 6.81105C1.6706 8.33377 1.50558 10.0093 1.82712 11.6258C2.14866 13.2423 2.94234 14.7272 4.10777 15.8926C5.27321 17.0581 6.75807 17.8517 8.37458 18.1733C9.99109 18.4948 11.6666 18.3298 13.1894 17.6991C14.7121 17.0683 16.0136 16.0002 16.9292 14.6298C17.8449 13.2594 18.3337 11.6483 18.3337 10.0001C18.3337 8.90573 18.1181 7.8221 17.6993 6.81105C17.2805 5.80001 16.6667 4.88135 15.8929 4.10752C15.1191 3.3337 14.2004 2.71987 13.1894 2.30109C12.1783 1.8823 11.0947 1.66675 10.0003 1.66675ZM10.8337 12.9167C10.8337 13.0273 10.7898 13.1332 10.7116 13.2114C10.6335 13.2895 10.5275 13.3334 10.417 13.3334H9.58366C9.47316 13.3334 9.36717 13.2895 9.28903 13.2114C9.21089 13.1332 9.167 13.0273 9.167 12.9167V12.0834C9.167 11.9729 9.21089 11.8669 9.28903 11.7888C9.36717 11.7106 9.47316 11.6667 9.58366 11.6667H10.417C10.5275 11.6667 10.6335 11.7106 10.7116 11.7888C10.7898 11.8669 10.8337 11.9729 10.8337 12.0834V12.9167ZM10.6503 9.81675C10.6442 9.86756 10.6196 9.91434 10.5811 9.94815C10.5427 9.98197 10.4932 10.0005 10.442 10.0001H9.55866C9.50748 10.0005 9.45795 9.98197 9.41953 9.94815C9.3811 9.91434 9.35647 9.86756 9.35033 9.81675L9.017 7.13342C9.00989 7.07465 9.01539 7.01505 9.03312 6.95857C9.05086 6.9021 9.08042 6.85005 9.11984 6.8059C9.15927 6.76174 9.20765 6.7265 9.26176 6.7025C9.31587 6.67851 9.37447 6.66632 9.43366 6.66675H10.567C10.6262 6.66632 10.6848 6.67851 10.7389 6.7025C10.793 6.7265 10.8414 6.76174 10.8808 6.8059C10.9202 6.85005 10.9498 6.9021 10.9675 6.95857C10.9853 7.01505 10.9908 7.07465 10.9837 7.13342L10.6503 9.81675Z"
    fill="currentColor"
  />
</svg>

<svg xmlns="http://www.w3.org/2000/svg" width="20" height="20" fill="none"><path fill="currentColor" d="M10 1.667a8.333 8.333 0 1 0 0 16.666 8.333 8.333 0 0 0 0-16.666Zm.834 11.25a.417.417 0 0 1-.417.416h-.833a.417.417 0 0 1-.417-.416v-.834a.417.417 0 0 1 .417-.416h.833a.416.416 0 0 1 .417.416v.834Zm-.184-3.1a.208.208 0 0 1-.208.183h-.883a.208.208 0 0 1-.209-.183l-.333-2.684a.417.417 0 0 1 .417-.466h1.133a.417.417 0 0 1 .417.466l-.334 2.684Z"/></svg>
